dist/images/icons/video-play.svg

<svg width="48" height="37" viewBox="0 0 48 37" fill="none" xmlns="http://www.w3.org/2000/svg">
<path d="M1 18.4111C1 24.9201 1.67247 28.7391 2.18367 30.7019C2.32032 31.238 2.58274 31.7338 2.94919 32.1482C3.31563 32.5626 3.77555 32.8838 4.29085 33.0851C11.6139 35.8992 23.75 35.8219 23.75 35.8219C23.75 35.8219 35.8859 35.8992 43.2091 33.0851C43.7244 32.8838 44.1843 32.5627 44.5508 32.1482C44.9172 31.7338 45.1796 31.238 45.3163 30.7019C45.8275 28.7391 46.5 24.9201 46.5 18.4111C46.5 11.902 45.8275 8.08305 45.3163 6.12024C45.1797 5.58418 44.9173 5.08839 44.5508 4.67395C44.1844 4.25952 43.7244 3.93836 43.2091 3.7371C35.8861 0.922935 23.75 1.00021 23.75 1.00021C23.75 1.00021 11.6141 0.922938 4.29092 3.73707C3.77562 3.93833 3.31569 4.25948 2.94925 4.67392C2.5828 5.08835 2.32038 5.58414 2.18372 6.1202C1.6725 8.08301 1 11.902 1 18.4111Z" stroke="white" stroke-width="2" stroke-linecap="round" stroke-linejoin="round"/>
<path d="M30.75 18.4102L20.25 11.4102V25.4102L30.75 18.4102Z" stroke="white" stroke-width="2" stroke-linecap="round" stroke-linejoin="round"/>
</svg>

<svg width="48" height="37" fill="none" xmlns="http://www.w3.org/2000/svg"><path d="M1 18.411c0 6.51.672 10.328 1.184 12.29a3.481 3.481 0 002.107 2.384c7.323 2.814 19.459 2.737 19.459 2.737s12.136.077 19.46-2.737a3.482 3.482 0 002.106-2.383c.511-1.963 1.184-5.782 1.184-12.29 0-6.51-.672-10.329-1.184-12.292a3.48 3.48 0 00-2.107-2.383C35.886.923 23.75 1 23.75 1S11.614.923 4.29 3.737A3.482 3.482 0 002.185 6.12C1.672 8.083 1 11.902 1 18.411z" stroke="#fff" stroke-width="2" stroke-linecap="round" stroke-linejoin="round"/><path d="M30.75 18.41l-10.5-7v14l10.5-7z" stroke="#fff" stroke-width="2" stroke-linecap="round" stroke-linejoin="round"/></svg>
